svg/air_humidifier_off.svg

<svg xmlns="http://www.w3.org/2000/svg" viewBox="0 0 24 24"><path d="M22.1 21.5 2.4 1.7 1.1 3l2.7 2.7C3.3 6.3 3 7.1 3 8v14h15v-2.1l2.8 2.8zm-12.5-10 2.8 2.8c-.3.4-.8.7-1.4.7-1.1 0-2-.9-2-2 0-.6.3-1.1.6-1.5m6.4 6.4V20H5V8c0-.3.1-.6.2-.9l3 3C7.5 10.8 7 11.9 7 13c0 2.2 1.8 4 4 4 1.1 0 2.2-.5 2.9-1.2zm1-4.1c.1-1.3 2-3.3 2-3.3s2 2.2 2 3.5c0 1-.8 1.9-1.8 2zM9.2 6l-2-2H14c2.2 0 4 1.8 4 4v1h-2V8c0-1.1-.9-2-2-2z"/></svg>

<?xml version="1.0" encoding="UTF-8"?><!DOCTYPE svg PUBLIC "-//W3C//DTD SVG 1.1//EN" "http://www.w3.org/Graphics/SVG/1.1/DTD/svg11.dtd"><svg xmlns="http://www.w3.org/2000/svg" xmlns:xlink="http://www.w3.org/1999/xlink" version="1.1" id="mdi-air-humidifier-off" width="24" height="24" viewBox="0 0 24 24"><path d="M22.1 21.5L2.4 1.7L1.1 3L3.8 5.7C3.3 6.3 3 7.1 3 8V22H18V19.9L20.8 22.7L22.1 21.5M9.6 11.5L12.4 14.3C12.1 14.7 11.6 15 11 15C9.9 15 9 14.1 9 13C9 12.4 9.3 11.9 9.6 11.5M16 17.9V20H5V8C5 7.7 5.1 7.4 5.2 7.1L8.2 10.1C7.5 10.8 7 11.9 7 13C7 15.2 8.8 17 11 17C12.1 17 13.2 16.5 13.9 15.8L16 17.9M17 13.8C17.1 12.5 19 10.5 19 10.5S21 12.7 21 14C21 15 20.2 15.9 19.2 16L17 13.8M9.2 6L7.2 4H14C16.2 4 18 5.8 18 8V9H16V8C16 6.9 15.1 6 14 6H9.2Z" /></svg>
